tools/download-figma-icons/icons/solid/heat-pump.svg

<svg width="24" height="24" viewBox="0 0 24 24" fill="none" xmlns="http://www.w3.org/2000/svg">
<path fill-rule="evenodd" clip-rule="evenodd" d="M2.2725 2.25H21.7275C22.98 2.25 24 3.27 24 4.5225V18.7275C24 19.98 22.98 21 21.7275 21H20.25V21.75C20.25 22.1625 19.9125 22.5 19.5 22.5H16.5C16.0875 22.5 15.75 22.1625 15.75 21.75V21H8.25V21.75C8.25 22.1625 7.9125 22.5 7.5 22.5H4.5C4.0875 22.5 3.75 22.1625 3.75 21.75V21H2.2725C1.02 21 0 19.98 0 18.7275V4.5225C0 3.27 1.02 2.25 2.2725 2.25ZM16.5 13.875H20.25C20.6625 13.875 21 13.5375 21 13.125C21 12.7125 20.6625 12.375 20.25 12.375H16.5C16.0875 12.375 15.75 12.7125 15.75 13.125C15.75 13.5375 16.0875 13.875 16.5 13.875ZM20.25 17.25C20.6625 17.25 21 16.9125 21 16.5C21 16.0875 20.6625 15.75 20.25 15.75H16.5C16.0875 15.75 15.75 16.0875 15.75 16.5C15.75 16.9125 16.0875 17.25 16.5 17.25H20.25ZM16.5 10.5H20.25C20.6625 10.5 21 10.1625 21 9.75V6.75C21 6.3375 20.6625 6 20.25 6H16.5C16.0875 6 15.75 6.3375 15.75 6.75V9.75C15.75 10.1625 16.0875 10.5 16.5 10.5ZM7.89 17.2425C11.01 17.2425 13.5375 14.715 13.5375 11.6025C13.5375 8.4825 11.0025 5.955 7.89 5.955C4.7775 5.955 2.25 8.49 2.25 11.6025C2.25 14.715 4.77 17.2425 7.89 17.2425ZM6.39747 11.4449C6.43497 11.1074 6.57747 10.8074 6.79497 10.5749C6.41247 9.98236 6.02247 8.88736 6.74247 8.00986C6.99747 7.67236 7.50747 7.48486 8.16747 7.49986C9.05247 7.52236 10.2825 7.95736 11.0625 9.10486C11.1975 9.29236 11.205 9.53236 11.0925 9.73486C10.9725 9.93736 10.7475 10.0424 10.5225 10.0274C9.55497 9.92986 8.99247 10.0349 8.74497 10.3649C8.99997 10.5449 9.20247 10.7999 9.29997 11.1074C10.005 11.0549 11.1825 11.2499 11.595 12.3374C11.76 12.7274 11.6625 13.2749 11.325 13.8224C10.86 14.5799 9.87747 15.4274 8.48997 15.5324H8.43747C8.22747 15.5324 8.03997 15.4274 7.92747 15.2399C7.81497 15.0299 7.82247 14.7899 7.96497 14.6024C8.51997 13.8299 8.71497 13.3049 8.57247 12.9374C8.36997 13.0424 8.13747 13.1024 7.88997 13.1024C7.79247 13.1024 7.69497 13.0949 7.60497 13.0724C7.30497 13.6424 6.66747 14.3999 5.72247 14.3999C5.62497 14.3999 5.52747 14.3924 5.42247 14.3774C5.00247 14.3174 4.58247 13.9649 4.27497 13.3949C3.84747 12.6224 3.60747 11.3399 4.20747 10.0874C4.30497 9.87736 4.50747 9.74986 4.73997 9.74986C5.00997 9.74236 5.18247 9.88486 5.27997 10.0949C5.66247 10.9349 6.02247 11.3699 6.39747 11.4449Z" fill="black"/>
</svg>

<svg xmlns="http://www.w3.org/2000/svg" width="24" height="24" fill="none" viewBox="0 0 24 24"><path fill="currentColor" fill-rule="evenodd" d="M2.273 2.25h19.455A2.276 2.276 0 0 1 24 4.523v14.205A2.276 2.276 0 0 1 21.727 21H20.25v.75c0 .413-.337.75-.75.75h-3a.75.75 0 0 1-.75-.75V21h-7.5v.75c0 .413-.338.75-.75.75h-3a.75.75 0 0 1-.75-.75V21H2.273A2.276 2.276 0 0 1 0 18.727V4.523A2.276 2.276 0 0 1 2.273 2.25M16.5 13.875h3.75c.413 0 .75-.338.75-.75a.75.75 0 0 0-.75-.75H16.5a.75.75 0 0 0-.75.75c0 .412.337.75.75.75m3.75 3.375c.413 0 .75-.337.75-.75a.75.75 0 0 0-.75-.75H16.5a.75.75 0 0 0-.75.75c0 .413.337.75.75.75zM16.5 10.5h3.75c.413 0 .75-.338.75-.75v-3a.75.75 0 0 0-.75-.75H16.5a.75.75 0 0 0-.75.75v3c0 .412.337.75.75.75m-8.61 6.743a5.645 5.645 0 0 0 5.648-5.64A5.65 5.65 0 0 0 7.89 5.954c-3.112 0-5.64 2.535-5.64 5.647s2.52 5.64 5.64 5.64m-1.493-5.798a1.5 1.5 0 0 1 .398-.87c-.383-.593-.773-1.688-.053-2.565.255-.338.765-.525 1.425-.51a3.69 3.69 0 0 1 2.896 1.605.58.58 0 0 1 .03.63.61.61 0 0 1-.57.292c-.968-.097-1.53.008-1.778.338.255.18.457.435.555.742.705-.052 1.882.143 2.295 1.23.165.39.067.938-.27 1.485a3.69 3.69 0 0 1-2.835 1.71h-.053a.59.59 0 0 1-.51-.292.58.58 0 0 1 .038-.638c.555-.772.75-1.297.607-1.665a1.48 1.48 0 0 1-.967.135c-.3.57-.938 1.328-1.883 1.328q-.144 0-.3-.023c-.42-.06-.84-.412-1.147-.982a3.68 3.68 0 0 1-.068-3.308c.098-.21.3-.337.533-.337.27-.008.442.135.54.345.382.84.742 1.275 1.117 1.35" clip-rule="evenodd"/></svg>
